X:245
T: Lar[r]y Grogan
N: O'Farrell's Pocket Companion v.3 (Sky ed. p.116)
N: "Irish"
M: 6/8
L: 1/8
Q: 320
R: jig
K: G
d/c/| BGG BGG| AFA ABc| ded cAF| GAG G2 d/c/ |
BGG BGG| AFA ABc| ded cAF| GAG G2 :|
d/e/| =f3 edc| Bcd dBG| =fed e^fg| ABA A2e|
=faf edc| Bcd dBG| BdB cAF| GAG G2 :|
